X:1
T:Onward, 85.85.88.85
T:Onward, 85.85.88.85
T:Ira David Sankey, 1901
T:Public Domain, Courtesy of the Cyber Hymnal™
C:Ira David Sankey, 1901
Z:Public Domain,
Z:Courtesy of the Cyber Hymnal™
%%score ( 1 2 ) 3
L:1/8
Q:1/4=110
M:4/4
K:F
V:1 treble 
V:2 treble 
V:3 bass 
V:1
 [FA]3 [FG] F2 [FA]2 | [Gc]3 [GB] [FA]2 F2 | [EG]3 [EG] F2 [EG]2 | [FA]6 z2 | [FA]3 [FG] F2 [FA]2 | %5
 [Ec]3 [GB] [FA]2 F2 | [EG]3 [Gd] [Fc]2 [F=B]2 | [Ec]6 z2 | [Ec]3 [EG] [EG]2 [FA]2 | %9
 [Gc]3 [EB] [GB]2 [FA]2 | [Fd]3 [FA] [^FA]2 [FA]2 | [Ad]3 [Ac] [Ac]2 [GB]2 | %12
 [Be]3 [Be] [Bd]2 [Bc]2 | [Ac]2 [Af]2 [Fc]2 [FB]2 | [FA]2 [DF]2 [EG]3 [CF] | [CF]8 |] %16
V:2
 x4 F2 x2 | x6 F2 | x4 F2 x2 | x8 | x4 F2 x2 | x6 F2 | x8 | x8 | x8 | x8 | x8 | x8 | x8 | x8 | x8 | %15
 x8 |] %16
V:3
 [F,C]3 [F,B,] [F,A,]2 [F,C]2 | [E,C]3 [E,C] [F,C]2 [A,,C]2 | [C,C]3 [C,B,] [C,A,]2 [C,C]2 | %3
 [F,C]6 z2 | [F,C]3 [F,B,] [F,A,]2 [F,C]2 | [C,C]3 [E,C] [F,C]2 [A,C]2 | %6
 [G,C]3 [G,E] [G,D]2 [G,,D]2 | [C,C]6 z2 | [C,G,]3 [C,C] [C,C]2 [F,C]2 | %9
 [E,C]3 [C,C] [E,C]2 [F,C]2 | [D,D]3 [D,D] [D,D]2 [D,D]2 | [^F,D]3 [F,D] [G,D]2 [G,D]2 | %12
 [C,C]3 [C,C] [D,F]2 [E,G]2 | [F,F]2 [F,C]2 [A,,_E]2 [B,,D]2 | [C,C]2 [C,A,]2 [C,B,]3 [F,A,] | %15
 [F,A,]8 |] %16

